X:1
T:Schön Rosmarin
T:Schön Rosmarin
T:piano arrangement
T:Fritz Kreisler piano arr.: Qruack/J.R. 
C:Jan Reckzügel
%%score { ( 1 3 ) | ( 2 4 ) }
L:1/8
Q:1/4=187
M:3/4
K:G
V:1 treble nm="Piano" snm="Pno."
V:3 treble 
V:2 bass 
V:4 bass 
V:1
!p!"^Grazioso" .!fermata!B,.!fermata!D .!fermata!G.B | .[Ed]2 z ^c !>![Fe]2- | %2
 [Fe](.^d .=d.^c .=c.B | .[Ed]2) z (3(c/d/c/ !>!E2- | E).=F .^F.B .A.F | .D.C!<(! .A,.C .D.F | %6
 .A.c (.^c.d)!<)! .b.a | ([cg][Ae]) (.d.B .G.E |!>(! .D.B, .^C.D .G.B!>)! | %9
 .[EGd]2) z [F^c] !>![Ee]2- | [Ee](.^d .=d.^c .=c.B | (.[Ed-])d) z (3(c/d/c/ !>!=E2 | %12
 E).=F .^F.B .[EA].F | .[CD].C .A,.C .D.F | .[GA].c .[^B^c].d .b.a | .[fg](.d .B.G .D.B,) | %16
 z2 .B,.D .G.B | .[Ed]2 z ^c !>![Fe]2- | [Fe](.^d .=d.^c .=c.B | .[Ed]2) z (3(c/d/c/ !>!E2- | %20
 E).=F .^F.B .A.F | .D.C!<(! .A,.C .D.F | .A.c (.^c.d)!<)! .b.a | ([cg][Ae]) .d.B .G.E | %24
!>(! .D.B, .^C.D .G.B!>)! | .[EGd]2 z [F^c] !>![Ee]2- | [Ee](.^d .=d.^c .=c.B | %27
 (.[Ed-])d) z (3(c/d/c/ !>!=E2 | E).=F .^F.B .[EA].F | .[CD].C .A,.C .D.F | %30
 .[GA].c .[^B^c].d .b.a | .[fg](.d .B.G .D.B,) | .G2 z2!f![Q:1/4=92]"^Andante"!ped! G2{B,DFAcd} || %33
[Q:1/4=171]"^meno mosso" (e3!ped!!ped-up! ^d) e2!ped-up! | z .g!ped! (c3 e)!ped-up! | %35
{/de} (d3!ped! ^c) d2!ped-up! | z .g!ped! (B3 d)!ped-up! | (c3!ped! e) F2-!ped-up! | %38
 F.c!ped! (D3 c)!ped-up! | B3 e G2- | G.B ((DB) .c.d) | %41
 (e3!ped!!ped-up!!ped! ^d) e2!ped-up!!ped!!ped-up! | %42
 z!ped! .g (c3!ped-up!!ped!!ped-up!!ped! e)!ped-up! | %43
{/de} (d3!ped!!ped-up!!ped! ^c) d2!ped-up!!ped!!ped-up! | %44
 z!ped! .g (B3!ped-up!!ped!!ped-up!!ped! d)!ped-up! | %45
 (c3!ped!!ped-up!!ped! e) E2-!ped-up!!ped!!ped-up! | %46
 E!ped!G F3!ped-up!!ped!!ped-up!!ped! A!ped-up! | G6- |!>(! G.A .B.c .^c.d!>)! | %49
!p!{/_e=f} (e3 .[Fd]) [Ge]2 | z [_Bg] [Gc]3 [B_e] |{/d_e} (d3 .[^F^c]) [Gd]2 | %52
 z .[_Bg] [=FB]3 [^F=B] | (c3 ._e) (G2- | G._B) (A3 .c) | (_B3 .d) (=f2- | f._b) (a3 _a) | %57
{/g_a} (g3 .f) g2 | z ._b (_e3 .g) |{/=fg} (f3 .e) f2 | z ._b (d3 .=f) | (_e3 .g) (G2- | %62
 G._B) (A3 .c) | _B6- |!>(! B(.=B.c.^c.d.^d)!>)! |!pp!{/ef} (e3 .^d) e2 | z .g (c3 .e) | %67
{/de} (d3 .^c) d2 | z .g (B3 .d) | (c3 .e) (F2- | F.c) (D3 .c) | (B3 .e) G2- | %72
 G.B!<(! .D.B .c.d!<)! |{/ef} (e3 .^d) e2 | z .g (c3 .e) |{/de} (d3 .^c) d2 | z .g (B3 .d) | %77
 (!>!c3 .e) (!>!E2- | E.G)!>(! (!>!F3 .A)!>)! | G6- | G2!p! .B,.D.G.B | .[Ed]2 z ^c !>![Fe]2- | %82
 [Fe]((.^d .=d.^c .=c.B | .[Ed]2)) z (3(((c/d/c/) !>!E2- | E)).=F .^F.B .A.F | %85
 .D.C!<(!!<(! .A,.C .D.F | .A.c (.^c.d)!<)! .b!<)!.a | (([cg][Ae])) (.d.B .G.E | %88
!>(!!>(! .D.B, .^C.D .G.B!>)!!>)! | .[EGd]2) z [F^c] !>![Ee]2- | [Ee]((.^d .=d.^c .=c.B | %91
 (.[Ed-]))d) z (3(c/d/c/ !>!=E2 | E).=F .^F.B .[EA].F | .[CD].C .A,.C .D.F | %94
 .[GA].c .[^B^c].d .b.a | .[fg]((.d .B.G .D.B,)) | .G,2 (.B,.D.G.B | .d2) z .^c e-e- | %98
 .e(.^d.=d.^c.=c.B | .d2) z (3((c/d/c/) !>!E2- | E).=F.^F.B.A.F | .D.C!<(!.A,.C.D.F | %102
 .A.c.^c.d.b!<)!.a | (ge)(.d.B.G.E |!>(! .D.B,.^C.D.G.B!>)! | .d2) z .^c e-e- |.e(.^d.=d.^c.=c.B | %107
 .d2) z (3(c/d/c/) E2- | .E.=F .^F.B .A.F | .D.C.A,.C.D.F | .A.c.^c.d.b.a | %111
 g(.d!>(!.B.G.D.B,)!>)! | .G,2 z4 |] %113
V:2
 z4 | [D,,G,,B,,]2 ([D,-G,-C][D,-G,-B,] [D,G,D]2) | .G,,.G, .F,.E, ([G,,-D,][G,,C,]) | %3
 .B,,.G, .D B,2 ^G, | z A,, [E,,-G,,][E,,B,,] .C,/.D,/.E,/.F,/ | %5
 z (.F, .[B,,E,].[A,,D,]) ([C,F,-][D,F,]) |!<(! [C,F,].C!<)! E3!>(! F | %7
 (CG,) .F,!>)!.D, (C,.[B,,E,]) | (3(!tenuto![G,,D,]2 !tenuto![=F,,^C,]2 !tenuto![G,,D,]2) .G,.B, | %9
 .[G,,,D,,]2 B,,D, [F,,C,]E,- | E,2 .E,.D, .C,.B,, | C,/C/G, F,E, C,2 | %12
 (3B,,2 [D,G,]2 [G,B,]2 .A,.F, | (3(F,2 D,2 E,2) D,2 | .C,2 CB, (3G,D,B,, | %15
 .C,.D, .G,.D, .B,,.G,, | .[G,,G,] !fermata!z z4 | [D,,G,,B,,]2 ([D,-G,-C][D,-G,-B,] [D,G,D]2) | %18
 .G,,.G, .F,.E, ([G,,-D,][G,,C,]) | .B,,.G, .D B,2 ^G, | z A,, [E,,-G,,][E,,B,,] .C,/.D,/.E,/.F,/ | %21
 z (.F, .[B,,E,].[A,,D,]) ([C,F,-][D,F,]) |!<(! [C,F,].C!<)! E3!>(! F | %23
 (CG,) .F,!>)!.D, (C,.[B,,E,]-) | .[B,,E,]2 .^C,2 .D,2 | .[G,,,D,,]2 [E,,B,,]D, [F,,C,]E,- | %26
 E,2 .E,.D, .C,.B,, | C,/C/G, F,E, C,2 | (3B,,2 [D,G,]2 [G,B,]2 .A,.F, | (3(F,2 D,2 E,2) D,2 | %30
 .C,2 CB, (3G,D,B,, | .C,.D, .G,.D, .B,,.G,, | .[G,,G,]2 z4 || (G,,A,, C,D, E,F, | %34
 G,^G, A,F, D,A,,) | (D,^D, E,=F, ^F,A, | _B,=B, G,D, _B,,=B,,) | (C,^C, D,G, _B,,=B,, | %38
 C,E, ^G,,A,, B,,E,) | (F,.G,) (_B,.=B,) (^C,.D,) | (F,.G,) (A,.B,) (C,.D,) | %41
 (3(.G,,.C,.E, (6:4:6.G,.F,.=F, .A,.G,.B,) | (3.C.G,.E, (6:4:6.C,.^C,.D, .^D,.E,.=F, | %43
 (3.^G,.B,.E, (6:4:6.=F,.^F,.=G, .^G,.=G,.F, | (3.E,.=F,.G, (6:4:6.B,,.C,.^C, .E,.^D,.=D, | %45
 (3.C,.^C,.D, (6:4:6._B,,.=B,,.=C, .E,.^D,.=D, | (3.C,.D,.^D, (6:4:6.F,._B,.A, .^G,.=G,.A, | %47
 G,2 z4 | z6 | [C,_E,G,]2 .G,._B, .C.D | !tenuto!C,,.G,, .C,._E, .G,._B, | %51
 !tenuto!_B,,,.D,, .=F,,.^C, .D,.=F, | !tenuto!_B,.=F, .D,._B,, ._A,,.D, | ._E,.G, ._B,.C ._E.D | %54
 .G,,._B,, .C,._E, .=F,.C | .D._B, .G,.=F, .D,.^D, | .E,.D .C._B, .A,.^G, | %57
 .G,.F, .=F,.D, .C,._B,, | .A,,.D, .F,.G, .B,.^C | .D.A, .=F,.E, (3._E,.=E,.F, | %60
 .G,._B, .D,.G, .=F,.^G, | .A,.C .F,.A, .^G,.=G, | .D,.G, ._B,.D .C2 | z6 | D,,,6 | %65
 .E,,.[B,,E,] .^G,.=G, .E,.B, | !>!C6 | z !>!B,4- B, | .G,.B, .D,.G, .B,,.D, | %69
 (3[C,G,]2 [E,C-]2 [D,C]2 [F,,C,]2 | .F,,.C, .^C,.=F, .^F,.A, | .B,.D .G,.A, .D,.G, | %72
 .G,,.B,, .D,.E, F,2- | F,^E, F,3 A, | D,3 F, G,2- | G,F, G,3 A, | B,3 C D2- | D^C .E.=C .G,.E, | %78
 [C,E,C]2 [D,F,D]2 [F,A,F]2 | [D,G,D]6 | z6 | [D,,G,,B,,]2 ([D,-G,-C][D,-G,-B,] [D,G,D]2) | %82
 .G,,.G, .F,.E, ([G,,-D,][G,,C,]) | .B,,.G, .D B,2 ^G, | z A,, [E,,-G,,][E,,B,,] .C,/.D,/.E,/.F,/ | %85
 z (.F, .[B,,E,].[A,,D,]) ([C,F,-][D,F,]) |!<(! [C,F,].C!<)! E3!>(! F | %87
 (CG,) .F,!>)!.D, (C,.[B,,E,]) | (3(!tenuto![G,,D,]2 !tenuto![=F,,^C,]2 !tenuto![G,,D,]2) .G,.B, | %89
 .[G,,,D,,]2 B,,D, [F,,C,]E,- | E,2 .E,.D, .C,.B,, | C,/C/G, F,E, C,2 | %92
 (3B,,2 [D,G,]2 [G,B,]2 .A,.F, | (3(F,2 D,2 E,2) D,2 | .C,2 CB, (3G,D,B,, | %95
 .C,.D, .G,.D, .B,,.G,, | .[G,,G,] z z4 | z6 | z6 | z6 | z6 | z6 | z6 | z6 | z6 | %105
 D,,2 [G,,B,,D,]2 [D,G,B,]2 | D,,2 ([G,-D].[G,^C]) ([F,-=C].[F,B,]) | %107
 [D,A,]A,, ._B,,.=B,, .C,.^C, | .D,.=F, .^F,.B, .A,.F, | .D,.C, .A,,.C, .D,.F, | %110
 .A,.C .^C.D .B,.A, | G,6 | .[G,,,G,,]2 z4 |] %113
V:3
 x4 | x6 | x6 | x6 | A,6 | G,6 | A, x5 | x6 | x6 | x6 | x6 | x D2 _E =E2- | x6 | x6 | x6 | x6 | %16
 x6 | x6 | x6 | x6 | A,6 | G,6 | A, x5 | x6 | x6 | x6 | x6 | x D2 _E =E2- | x6 | x6 | x6 | x6 | %32
 x6 || x6 | x6 | x6 | x6 | x6 | x6 | x6 | x6 | x6 | x6 | x6 | x6 | x6 | x6 | x6 | x6 | x6 | %50
 (_E2 =F2 G2) | (=F2 _E4) | =F2 F_B G^F | x6 | CD C=F E2 | z G =F2 GA | _Bd [Bc]4 | %57
 .d.^c .=c.B ._B.d | .^d.=d .^c.=c .B._B | .d.^c .=c.B ._B.A | .^c.=c .B._B .A.^G | %61
 .c.B ._B.A ._A z | x6 | x6 | x6 | x6 | x6 | x6 | x6 | x6 | x6 | x6 | x6 | x6 | x6 | x6 | x6 | x6 | %78
 x6 | x6 | x6 | x6 | x6 | x6 | A,6 | G,6 | A, x5 | x6 | x6 | x6 | x6 | x D2 _E =E2- | x6 | x6 | %94
 x6 | x6 | x6 | x6 | x6 | x6 | x6 | x6 | x6 | x6 | x6 | x6 | x6 | x6 | x6 | x6 | x6 | x6 | x6 |] %113
V:4
 x4 | x6 | x6 | x6 | x6 | x6 | x6 | x6 | x6 | x6 | x6 | x6 | x6 | .B,,.A,, .G,,.A,, B,,2 | x6 | %15
 x6 | x6 | x6 | x6 | x6 | x6 | x6 | x6 | x6 | x6 | x6 | x6 | x6 | x6 | .B,,.A,, .G,,.A,, B,,2 | %30
 x6 | x6 | x6 || (C,,2 G,,2 A,,2 | B,,2 C,2 G,,2) | (G,,2 A,,2 C,2 | D,2 B,,2 G,,2) | %37
 (A,,2 B,,2 F,,2 | G,,2 D,,2 E,,2) | D,2 G,2 E,2 | D,2 F,2 F,2 | C,,6 | C,2 z4 | B,,6 | A,,2 G,,4 | %45
 F,,6 | G,,2 A,,2 B,,2 | G,,2 z4 | x6 | x6 | x6 | x6 | x6 | (_E2 D2 C2) | x6 | x6 | x6 | x6 | x6 | %59
 x6 | x6 | x6 | x6 | x6 | x6 | x6 | x6 | x6 | x6 | x6 | x6 | x6 | x6 | x6 | x6 | x6 | x6 | x6 | %78
 x6 | x6 | x6 | x6 | x6 | x6 | x6 | x6 | x6 | x6 | x6 | x6 | x6 | x6 | x6 | %93
 .B,,.A,, .G,,.A,, B,,2 | x6 | x6 | x6 | x6 | x6 | x6 | x6 | x6 | x6 | x6 | x6 | x6 | x6 | x6 | %108
 x6 | x6 | x6 | x6 | x6 |] %113

